static/img/kroki/cd0528938fc155e11638bfc0432b309d.svg

<?xml version="1.0" encoding="us-ascii" standalone="no"?><svg xmlns="http://www.w3.org/2000/svg" xmlns:xlink="http://www.w3.org/1999/xlink" contentStyleType="text/css" height="919px" preserveAspectRatio="none" style="width:556px;height:919px;" version="1.1" viewBox="0 0 556 919" width="556px" zoomAndPan="magnify"><defs/><g><!--class azure_dedicated_host_group--><g id="elem_azure_dedicated_host_group"><rect codeLine="22" fill="#3D176E" height="179.2734" id="azure_dedicated_host_group" rx="2.5" ry="2.5" style="stroke:#000D19;stroke-width:0.5;" width="542" x="7" y="599.55"/><ellipse cx="150.25" cy="619.4445" fill="#ADD1B2" rx="11" ry="11" style="stroke:#181818;stroke-width:1.0;"/><path d="M153.2188,625.0852 Q152.6406,625.382 152,625.5227 Q151.3594,625.6789 150.6563,625.6789 Q148.1563,625.6789 146.8281,624.0383 Q145.5156,622.382 145.5156,619.257 Q145.5156,616.132 146.8281,614.4758 Q148.1563,612.8195 150.6563,612.8195 Q151.3594,612.8195 152,612.9758 Q152.6563,613.132 153.2188,613.4289 L153.2188,616.1477 Q152.5938,615.5695 152,615.3039 Q151.4063,615.0227 150.7813,615.0227 Q149.4375,615.0227 148.75,616.1008 Q148.0625,617.1633 148.0625,619.257 Q148.0625,621.3508 148.75,622.4289 Q149.4375,623.4914 150.7813,623.4914 Q151.4063,623.4914 152,623.2258 Q152.5938,622.9445 153.2188,622.3664 L153.2188,625.0852 Z " fill="#000000"/><text fill="#D9B8FF" font-family="Helvetica" font-size="17" lengthAdjust="spacing" textLength="237" x="175.75" y="625.3298">azure_dedicated_host_group</text><line style="stroke:#000D19;stroke-width:0.5;" x1="8" x2="548" y1="639.3391" y2="639.3391"/><text fill="#D9B8FF" font-family="sans-serif" font-size="14" font-weight="bold" lengthAdjust="spacing" textLength="207" x="18" y="661.3342">host_group_instance_view</text><text fill="#D9B8FF" font-family="sans-serif" font-size="14" lengthAdjust="spacing" textLength="313" x="225" y="661.3342">: azure_dedicated_host_group_instance_view</text><text fill="#D9B8FF" font-family="sans-serif" font-size="14" font-weight="bold" lengthAdjust="spacing" textLength="44" x="18" y="687.6311">hosts</text><text fill="#D9B8FF" font-family="sans-serif" font-size="14" lengthAdjust="spacing" textLength="58" x="62" y="687.6311">: string[]</text><text fill="#D9B8FF" font-family="sans-serif" font-size="14" font-weight="bold" lengthAdjust="spacing" textLength="224" x="18" y="713.9279">platform_fault_domain_count</text><text fill="#D9B8FF" font-family="sans-serif" font-size="14" lengthAdjust="spacing" textLength="44" x="242" y="713.9279">: int64</text><text fill="#D9B8FF" font-family="sans-serif" font-size="14" font-weight="bold" lengthAdjust="spacing" textLength="235" x="18" y="740.2248">support_automatic_placement</text><text fill="#D9B8FF" font-family="sans-serif" font-size="14" lengthAdjust="spacing" textLength="65" x="253" y="740.2248">: boolean</text><text fill="#D9B8FF" font-family="sans-serif" font-size="14" font-weight="bold" lengthAdjust="spacing" textLength="141" x="18" y="766.5217">ultra_ssd_enabled</text><text fill="#D9B8FF" font-family="sans-serif" font-size="14" lengthAdjust="spacing" textLength="65" x="159" y="766.5217">: boolean</text></g><!--class azure_dedicated_host_group_instance_view--><g id="elem_azure_dedicated_host_group_instance_view"><rect codeLine="29" fill="#3D176E" height="74.0859" id="azure_dedicated_host_group_instance_view" rx="2.5" ry="2.5" style="stroke:#000D19;stroke-width:0.5;" width="407" x="74.5" y="838.82"/><ellipse cx="89.5" cy="858.7145" fill="#ADD1B2" rx="11" ry="11" style="stroke:#181818;stroke-width:1.0;"/><path d="M92.4688,864.3552 Q91.8906,864.652 91.25,864.7927 Q90.6094,864.9489 89.9063,864.9489 Q87.4063,864.9489 86.0781,863.3083 Q84.7656,861.652 84.7656,858.527 Q84.7656,855.402 86.0781,853.7458 Q87.4063,852.0895 89.9063,852.0895 Q90.6094,852.0895 91.25,852.2458 Q91.9063,852.402 92.4688,852.6989 L92.4688,855.4177 Q91.8438,854.8395 91.25,854.5739 Q90.6563,854.2927 90.0313,854.2927 Q88.6875,854.2927 88,855.3708 Q87.3125,856.4333 87.3125,858.527 Q87.3125,860.6208 88,861.6989 Q88.6875,862.7614 90.0313,862.7614 Q90.6563,862.7614 91.25,862.4958 Q91.8438,862.2145 92.4688,861.6364 L92.4688,864.3552 Z " fill="#000000"/><text fill="#D9B8FF" font-family="Helvetica" font-size="17" lengthAdjust="spacing" textLength="365" x="108.5" y="864.5998">azure_dedicated_host_group_instance_view</text><line style="stroke:#000D19;stroke-width:0.5;" x1="75.5" x2="480.5" y1="878.6091" y2="878.6091"/><text fill="#D9B8FF" font-family="sans-serif" font-size="14" font-weight="bold" lengthAdjust="spacing" textLength="44" x="85.5" y="900.6042">hosts</text><text fill="#D9B8FF" font-family="sans-serif" font-size="14" lengthAdjust="spacing" textLength="58" x="129.5" y="900.6042">: string[]</text></g><!--class azure_resource--><g id="elem_azure_resource"><rect codeLine="32" fill="#3D176E" height="39.7891" id="azure_resource" rx="2.5" ry="2.5" style="stroke:#000D19;stroke-width:0.5;" width="168" x="194" y="438.76"/><ellipse cx="209" cy="458.6545" fill="#ADD1B2" rx="11" ry="11" style="stroke:#181818;stroke-width:1.0;"/><path d="M211.9688,464.2952 Q211.3906,464.592 210.75,464.7327 Q210.1094,464.8889 209.4063,464.8889 Q206.9063,464.8889 205.5781,463.2483 Q204.2656,461.592 204.2656,458.467 Q204.2656,455.342 205.5781,453.6858 Q206.9063,452.0295 209.4063,452.0295 Q210.1094,452.0295 210.75,452.1858 Q211.4063,452.342 211.9688,452.6389 L211.9688,455.3577 Q211.3438,454.7795 210.75,454.5139 Q210.1563,454.2327 209.5313,454.2327 Q208.1875,454.2327 207.5,455.3108 Q206.8125,456.3733 206.8125,458.467 Q206.8125,460.5608 207.5,461.6389 Q208.1875,462.7014 209.5313,462.7014 Q210.1563,462.7014 210.75,462.4358 Q211.3438,462.1545 211.9688,461.5764 L211.9688,464.2952 Z " fill="#000000"/><text fill="#D9B8FF" font-family="Helvetica" font-size="17" lengthAdjust="spacing" textLength="126" x="228" y="464.5398">azure_resource</text></g><!--class resource--><g id="elem_resource"><rect codeLine="34" fill="#3D176E" height="310.7578" id="resource" rx="2.5" ry="2.5" style="stroke:#000D19;stroke-width:0.5;" width="227" x="164.5" y="7"/><ellipse cx="233.25" cy="26.8945" fill="#ADD1B2" rx="11" ry="11" style="stroke:#181818;stroke-width:1.0;"/><path d="M236.2188,32.5352 Q235.6406,32.832 235,32.9727 Q234.3594,33.1289 233.6563,33.1289 Q231.1563,33.1289 229.8281,31.4883 Q228.5156,29.832 228.5156,26.707 Q228.5156,23.582 229.8281,21.9258 Q231.1563,20.2695 233.6563,20.2695 Q234.3594,20.2695 235,20.4258 Q235.6563,20.582 236.2188,20.8789 L236.2188,23.5977 Q235.5938,23.0195 235,22.7539 Q234.4063,22.4727 233.7813,22.4727 Q232.4375,22.4727 231.75,23.5508 Q231.0625,24.6133 231.0625,26.707 Q231.0625,28.8008 231.75,29.8789 Q232.4375,30.9414 233.7813,30.9414 Q234.4063,30.9414 235,30.6758 Q235.5938,30.3945 236.2188,29.8164 L236.2188,32.5352 Z " fill="#000000"/><text fill="#D9B8FF" font-family="Helvetica" font-size="17" lengthAdjust="spacing" textLength="71" x="258.75" y="32.7798">resource</text><line style="stroke:#000D19;stroke-width:0.5;" x1="165.5" x2="390.5" y1="46.7891" y2="46.7891"/><text fill="#D9B8FF" font-family="sans-serif" font-size="14" font-weight="bold" lengthAdjust="spacing" textLength="29" x="175.5" y="68.7842">age</text><text fill="#D9B8FF" font-family="sans-serif" font-size="14" lengthAdjust="spacing" textLength="66" x="204.5" y="68.7842">: duration</text><text fill="#D9B8FF" font-family="sans-serif" font-size="14" font-weight="bold" lengthAdjust="spacing" textLength="43" x="175.5" y="95.0811">atime</text><text fill="#D9B8FF" font-family="sans-serif" font-size="14" lengthAdjust="spacing" textLength="70" x="218.5" y="95.0811">: datetime</text><text fill="#D9B8FF" font-family="sans-serif" font-size="14" font-weight="bold" lengthAdjust="spacing" textLength="43" x="175.5" y="121.3779">ctime</text><text fill="#D9B8FF" font-family="sans-serif" font-size="14" lengthAdjust="spacing" textLength="70" x="218.5" y="121.3779">: datetime</text><text fill="#D9B8FF" font-family="sans-serif" font-size="14" font-weight="bold" lengthAdjust="spacing" textLength="14" x="175.5" y="147.6748">id</text><text fill="#D9B8FF" font-family="sans-serif" font-size="14" lengthAdjust="spacing" textLength="48" x="189.5" y="147.6748">: string</text><text fill="#D9B8FF" font-family="sans-serif" font-size="14" font-weight="bold" lengthAdjust="spacing" textLength="33" x="175.5" y="173.9717">kind</text><text fill="#D9B8FF" font-family="sans-serif" font-size="14" lengthAdjust="spacing" textLength="48" x="208.5" y="173.9717">: string</text><text fill="#D9B8FF" font-family="sans-serif" font-size="14" font-weight="bold" lengthAdjust="spacing" textLength="90" x="175.5" y="200.2686">last_access</text><text fill="#D9B8FF" font-family="sans-serif" font-size="14" lengthAdjust="spacing" textLength="66" x="265.5" y="200.2686">: duration</text><text fill="#D9B8FF" font-family="sans-serif" font-size="14" font-weight="bold" lengthAdjust="spacing" textLength="90" x="175.5" y="226.5654">last_update</text><text fill="#D9B8FF" font-family="sans-serif" font-size="14" lengthAdjust="spacing" textLength="66" x="265.5" y="226.5654">: duration</text><text fill="#D9B8FF" font-family="sans-serif" font-size="14" font-weight="bold" lengthAdjust="spacing" textLength="48" x="175.5" y="252.8623">mtime</text><text fill="#D9B8FF" font-family="sans-serif" font-size="14" lengthAdjust="spacing" textLength="70" x="223.5" y="252.8623">: datetime</text><text fill="#D9B8FF" font-family="sans-serif" font-size="14" font-weight="bold" lengthAdjust="spacing" textLength="43" x="175.5" y="279.1592">name</text><text fill="#D9B8FF" font-family="sans-serif" font-size="14" lengthAdjust="spacing" textLength="48" x="218.5" y="279.1592">: string</text><text fill="#D9B8FF" font-family="sans-serif" font-size="14" font-weight="bold" lengthAdjust="spacing" textLength="34" x="175.5" y="305.4561">tags</text><text fill="#D9B8FF" font-family="sans-serif" font-size="14" lengthAdjust="spacing" textLength="171" x="209.5" y="305.4561">: dictionary[string, string]</text></g><!--link azure_dedicated_host_group to azure_dedicated_host_group_instance_view--><g id="link_azure_dedicated_host_group_azure_dedicated_host_group_instance_view"><path codeLine="46" d="M278,779.28 C278,800.31 278,815.57 278,832.68 " fill="none" id="azure_dedicated_host_group-to-azure_dedicated_host_group_instance_view" style="stroke:#FFAF37;stroke-width:2.0;"/><polygon fill="#FFAF37" points="278,838.68,282,829.68,278,833.68,274,829.68,278,838.68" style="stroke:#FFAF37;stroke-width:2.0;"/></g><!--reverse link azure_resource to azure_dedicated_host_group--><g id="link_azure_resource_azure_dedicated_host_group"><path codeLine="47" d="M278,496.75 C278,523.24 278,554.92 278,599.24 " fill="none" id="azure_resource-backto-azure_dedicated_host_group" style="stroke:#FFAF37;stroke-width:2.0;"/><polygon fill="none" points="278,478.75,272,496.75,284,496.75,278,478.75" style="stroke:#FFAF37;stroke-width:2.0;"/></g><!--reverse link resource to azure_resource--><g id="link_resource_azure_resource"><path codeLine="48" d="M278,335.84 C278,384.13 278,413.37 278,438.68 " fill="none" id="resource-backto-azure_resource" style="stroke:#FFAF37;stroke-width:2.0;"/><polygon fill="none" points="278,317.84,272,335.84,284,335.84,278,317.84" style="stroke:#FFAF37;stroke-width:2.0;"/></g><!--SRC=[ZPDDRzim38Rl-HK6UZCM86ctfXc60bs0ORiKmxfRCGYCH2T2RCcWw0Rfjly-gavIVwJEJhPUFYHVqlBQ6aomA7cN55WiaS8eRAmhWQ18xeZyTk5pJyb5ba5sDUi6ltZ7Pu5xA33vYlaJijNG9NwkhTuu326vR8G-Wzwio5VErEMPm0K9eUC6jSWXX3jciikAiM76p9StMTObkqKlhinqTeqzp9D1sYEJoSHCvrtaRAl1kO_4Wtt6PDfSshrdxDdijNYX1br6ec6oD-WX_gR7xs2CTQlaGqFxKNiYXzJI7zPW_3RI6UIXsIOm4dhUbRZeJONp6vFDJiBVte9rt5m2pnMXCcZ4CgDHQnzOHRnCVe_IzFMeh0iCJgDwihXDquy3gMrsNoR4d23towqUVubMvi2Pfq9bKEMiZ2_0EgN5A4VIEhv-BrYeoj8JAwXO2DciaaID1TROqliSmGaeHGXK24QXWsMEfXd-UtRSjkVZy6tNxJA4mLUaKU13e26bAQmmPfkAnBUF7kLPr9fqZ- -YwHEQDQzjvIYVjIr8Bzc8rlAhTpgyHAeorkf4YXDz7DJIiJ33ggveTKm3sZtMiNTx9kvWuCwCnxV_VoywM_pqPpmU3sIFJf87yHy0]--></g></svg>

<svg xmlns="http://www.w3.org/2000/svg" width="556" height="919" viewBox="0 0 556 919"><rect width="542" height="179.273" x="7" y="599.55" fill="#3D176E" rx="2.5" ry="2.5" style="stroke:#000d19;stroke-width:.5"/><circle cx="150.25" cy="619.444" r="11" fill="#ADD1B2" style="stroke:#181818;stroke-width:1"/><path d="M153.219 625.085q-.578.297-1.219.438-.64.156-1.344.156-2.5 0-3.828-1.64-1.312-1.657-1.312-4.782t1.312-4.781q1.328-1.657 3.828-1.657.703 0 1.344.157.656.156 1.219.453v2.719q-.625-.579-1.219-.844-.594-.281-1.219-.281-1.344 0-2.031 1.078-.687 1.062-.687 3.156t.687 3.172q.688 1.062 2.031 1.062.625 0 1.219-.265.594-.282 1.219-.86z"/><text x="175.75" y="625.33" fill="#D9B8FF" font-family="Helvetica" font-size="17" textLength="237">azure_dedicated_host_group</text><path d="M8 639.339h540" style="stroke:#000d19;stroke-width:.5"/><text x="18" y="661.334" fill="#D9B8FF" font-family="sans-serif" font-size="14" font-weight="bold" textLength="207">host_group_instance_view</text><text x="225" y="661.334" fill="#D9B8FF" font-family="sans-serif" font-size="14" textLength="313">: azure_dedicated_host_group_instance_view</text><text x="18" y="687.631" fill="#D9B8FF" font-family="sans-serif" font-size="14" font-weight="bold" textLength="44">hosts</text><text x="62" y="687.631" fill="#D9B8FF" font-family="sans-serif" font-size="14" textLength="58">: string[]</text><text x="18" y="713.928" fill="#D9B8FF" font-family="sans-serif" font-size="14" font-weight="bold" textLength="224">platform_fault_domain_count</text><text x="242" y="713.928" fill="#D9B8FF" font-family="sans-serif" font-size="14" textLength="44">: int64</text><text x="18" y="740.225" fill="#D9B8FF" font-family="sans-serif" font-size="14" font-weight="bold" textLength="235">support_automatic_placement</text><text x="253" y="740.225" fill="#D9B8FF" font-family="sans-serif" font-size="14" textLength="65">: boolean</text><text x="18" y="766.522" fill="#D9B8FF" font-family="sans-serif" font-size="14" font-weight="bold" textLength="141">ultra_ssd_enabled</text><text x="159" y="766.522" fill="#D9B8FF" font-family="sans-serif" font-size="14" textLength="65">: boolean</text><rect width="407" height="74.086" x="74.5" y="838.82" fill="#3D176E" rx="2.5" ry="2.5" style="stroke:#000d19;stroke-width:.5"/><circle cx="89.5" cy="858.715" r="11" fill="#ADD1B2" style="stroke:#181818;stroke-width:1"/><path d="M92.469 864.355q-.578.297-1.219.438-.64.156-1.344.156-2.5 0-3.828-1.64-1.312-1.657-1.312-4.782t1.312-4.781q1.328-1.656 3.828-1.656.703 0 1.344.156.656.156 1.219.453v2.719q-.625-.578-1.219-.844-.594-.281-1.219-.281-1.344 0-2.031 1.078-.687 1.062-.687 3.156t.687 3.172q.688 1.062 2.031 1.062.625 0 1.219-.265.594-.281 1.219-.86z"/><text x="108.5" y="864.6" fill="#D9B8FF" font-family="Helvetica" font-size="17" textLength="365">azure_dedicated_host_group_instance_view</text><path d="M75.5 878.609h405" style="stroke:#000d19;stroke-width:.5"/><text x="85.5" y="900.604" fill="#D9B8FF" font-family="sans-serif" font-size="14" font-weight="bold" textLength="44">hosts</text><text x="129.5" y="900.604" fill="#D9B8FF" font-family="sans-serif" font-size="14" textLength="58">: string[]</text><rect width="168" height="39.789" x="194" y="438.76" fill="#3D176E" rx="2.5" ry="2.5" style="stroke:#000d19;stroke-width:.5"/><circle cx="209" cy="458.654" r="11" fill="#ADD1B2" style="stroke:#181818;stroke-width:1"/><path d="M211.969 464.295q-.578.297-1.219.438-.64.156-1.344.156-2.5 0-3.828-1.64-1.312-1.657-1.312-4.782t1.312-4.781q1.328-1.656 3.828-1.656.703 0 1.344.156.656.156 1.219.453v2.719q-.625-.579-1.219-.844-.594-.281-1.219-.281-1.344 0-2.031 1.078-.687 1.062-.687 3.156t.687 3.172q.688 1.062 2.031 1.062.625 0 1.219-.265.594-.281 1.219-.86z"/><text x="228" y="464.54" fill="#D9B8FF" font-family="Helvetica" font-size="17" textLength="126">azure_resource</text><rect width="227" height="310.758" x="164.5" y="7" fill="#3D176E" rx="2.5" ry="2.5" style="stroke:#000d19;stroke-width:.5"/><circle cx="233.25" cy="26.895" r="11" fill="#ADD1B2" style="stroke:#181818;stroke-width:1"/><path d="M236.219 32.535q-.578.297-1.219.438-.64.156-1.344.156-2.5 0-3.828-1.64-1.312-1.657-1.312-4.782t1.312-4.781q1.328-1.656 3.828-1.656.703 0 1.344.156.656.156 1.219.453v2.719q-.625-.578-1.219-.844-.594-.281-1.219-.281-1.344 0-2.031 1.078-.687 1.062-.687 3.156t.687 3.172q.688 1.062 2.031 1.062.625 0 1.219-.265.594-.281 1.219-.86z"/><text x="258.75" y="32.78" fill="#D9B8FF" font-family="Helvetica" font-size="17" textLength="71">resource</text><path d="M165.5 46.789h225" style="stroke:#000d19;stroke-width:.5"/><text x="175.5" y="68.784" fill="#D9B8FF" font-family="sans-serif" font-size="14" font-weight="bold" textLength="29">age</text><text x="204.5" y="68.784" fill="#D9B8FF" font-family="sans-serif" font-size="14" textLength="66">: duration</text><text x="175.5" y="95.081" fill="#D9B8FF" font-family="sans-serif" font-size="14" font-weight="bold" textLength="43">atime</text><text x="218.5" y="95.081" fill="#D9B8FF" font-family="sans-serif" font-size="14" textLength="70">: datetime</text><text x="175.5" y="121.378" fill="#D9B8FF" font-family="sans-serif" font-size="14" font-weight="bold" textLength="43">ctime</text><text x="218.5" y="121.378" fill="#D9B8FF" font-family="sans-serif" font-size="14" textLength="70">: datetime</text><text x="175.5" y="147.675" fill="#D9B8FF" font-family="sans-serif" font-size="14" font-weight="bold" textLength="14">id</text><text x="189.5" y="147.675" fill="#D9B8FF" font-family="sans-serif" font-size="14" textLength="48">: string</text><text x="175.5" y="173.972" fill="#D9B8FF" font-family="sans-serif" font-size="14" font-weight="bold" textLength="33">kind</text><text x="208.5" y="173.972" fill="#D9B8FF" font-family="sans-serif" font-size="14" textLength="48">: string</text><text x="175.5" y="200.269" fill="#D9B8FF" font-family="sans-serif" font-size="14" font-weight="bold" textLength="90">last_access</text><text x="265.5" y="200.269" fill="#D9B8FF" font-family="sans-serif" font-size="14" textLength="66">: duration</text><text x="175.5" y="226.565" fill="#D9B8FF" font-family="sans-serif" font-size="14" font-weight="bold" textLength="90">last_update</text><text x="265.5" y="226.565" fill="#D9B8FF" font-family="sans-serif" font-size="14" textLength="66">: duration</text><text x="175.5" y="252.862" fill="#D9B8FF" font-family="sans-serif" font-size="14" font-weight="bold" textLength="48">mtime</text><text x="223.5" y="252.862" fill="#D9B8FF" font-family="sans-serif" font-size="14" textLength="70">: datetime</text><text x="175.5" y="279.159" fill="#D9B8FF" font-family="sans-serif" font-size="14" font-weight="bold" textLength="43">name</text><text x="218.5" y="279.159" fill="#D9B8FF" font-family="sans-serif" font-size="14" textLength="48">: string</text><text x="175.5" y="305.456" fill="#D9B8FF" font-family="sans-serif" font-size="14" font-weight="bold" textLength="34">tags</text><text x="209.5" y="305.456" fill="#D9B8FF" font-family="sans-serif" font-size="14" textLength="171">: dictionary[string, string]</text><path fill="none" d="M278 779.28v53.4" style="stroke:#ffaf37;stroke-width:2"/><path fill="#FFAF37" d="m278 838.68 4-9-4 4-4-4z" style="stroke:#ffaf37;stroke-width:2"/><path fill="none" d="M278 496.75v102.49m0-120.49-6 18h12zm0-142.91v102.84m0-120.84-6 18h12z" style="stroke:#ffaf37;stroke-width:2"/></svg>
